X:20028
T:Tars of the Victory
T:News of the Victory
R:Jig
C:Trad.
O:England; Cumbria
Z:Paul Hardy's Session Tunebook 2022 (see www.paulhardy.net). Creative Commons cc by-nc-sa licenced.
M:6/8
L:1/8
Q:3/8=100
K:G
d|"D"d^cd dcd|"G"g2G G2B|"D"ABc DEF|"G"GBd d2d|"D"d^cd dcd|"G"g2G GAB|"D7"ABc DEF|"G"G2B G2:|
|:g|"D"fed d2c|"G"Bcd G2B|"D"ABc DEF|"G"GBd d2g|"D"fed d2c|"G"Bcd G2B|"D7"ABc DEF|"G"G3G2:|

